X:1
T:Title
%%score { ( 1 3 ) | ( 2 4 ) }
L:1/8
M:6/8
K:Bb
V:1 treble nm="Grand Piano"
V:3 treble 
V:2 bass 
V:4 bass 
V:1
 z3 z2[Q:1/4=90] [B,DF] | [B,DF][K:bass][F,B,D][F,CE][K:treble] [B,DF][B,EG][EA] | %2
 [DB]3- [DB]2 [DF] | GEG [GB][FA][EG] |[M:5/8] [DF]-[DF]- [DF]3 |[M:1/8] [DF] | %6
[M:3/4] [FB][FA] [FB]c Bc | d4- d[Ge] | d>c Bc GA |[M:5/8] [B,DB]-[B,DB]- [B,DB]3 |[M:1/8] [DFB] | %11
[M:3/4] B>A B c2 c | c>B c d2 B/A/ | GG G[=EG] [Ec][EB] | A6 | z2 z2 z d | %16
[M:7/8] [Ge]>[Ge][Ge] [Ge]3 [Gc] |[M:3/4] B>B BA GA | [B,B]-[B,FB] c d2 [Ge] | d>c Bc GA | %20
[M:5/8] [DB-]2 [EB-] [DB]2 |] %21
V:2
 z3 z2 B,, | B,,B,,B,, B,,B,,B,, | [B,,F,]3- [B,,F,]2 [B,,B,] | %3
 [E,B,E][E,G,B,][E,B,E] [E,B,][E,B,][E,B,] |[M:5/8] [B,,B,]-[B,,B,]- [B,,B,]3 |[M:1/8] [B,,B,] | %6
[M:3/4] [D,B,][D,B,] [D,B,][F,A,E] [F,B,D][K:treble][F,A,F] | [B,F]4- [B,F][K:bass][E,B,] | %8
 [F,B,F]>[F,B,E] [F,B,D][F,A,E] [F,B,E][F,CE] |[M:5/8] B,,-B,,- B,,3 |[M:1/8] B,, | %11
[M:3/4][K:treble] [F,DF]>[F,CF] [F,DF] [F,EF]2 [F,EF] | %12
 [F,EF]>[F,DF] [F,A,F] [B,F]2[K:bass] [D,B,] | [E,B,E][E,B,E] [E,B,E][C,C] [C,G,][C,C] | %14
 .[CF]2 z2 z2 | [B,,B,]>[B,,B,] [B,,B,][B,,B,][K:treble] [F,A,F].[B,F] | %16
[M:7/8][K:bass] [E,B,]>[E,B,][E,B,] [E,B,]3 [E,E] | %17
[M:3/4] [F,DF]>[F,DF] [F,DF][F,CE] [F,CE][F,CE] | B,,D,[K:treble] [F,A,F] [B,F]2[K:bass] [E,B,] | %19
 [F,B,F]>[F,B,E] [F,B,D][F,A,E] [F,B,E][F,CE] |[M:5/8] z F,G, F,2 |] %21
V:3
 x6 | x[K:bass] x2[K:treble] x3 | x6 | x6 |[M:5/8] x5 |[M:1/8] x |[M:3/4] x6 | x6 | x6 | %9
[M:5/8] x5 |[M:1/8] x |[M:3/4] x6 | z2 z2 z F | x6 | z F F F2 F | [DB]>[DB] [DB][DB] .c>_A | %16
[M:7/8] x7 |[M:3/4] x6 | .D2 z2 z2 | x6 |[M:5/8] B, z z z2 |] %21
V:4
 x6 | x6 | x6 | x6 |[M:5/8] x5 |[M:1/8] x |[M:3/4] x5[K:treble] x | x5[K:bass] x | x6 |[M:5/8] x5 | %10
[M:1/8] x |[M:3/4][K:treble] x6 | x5[K:bass] x | x6 | F,-[F,-C] [F,-C] [F,C]2 [F,A,] | %15
 x4[K:treble] x2 |[M:7/8][K:bass] x7 |[M:3/4] x6 | x2[K:treble] x3[K:bass] x | x6 | %20
[M:5/8] B,,-B,,- B,,3 |] %21

